packages/foundations/assets/icons/functional/images/business & payment/discount_12_filled.svg

<svg width="12" height="12" viewBox="0 0 12 12" fill="none" xmlns="http://www.w3.org/2000/svg">
<g clip-path="url(#clip0_2202_1448)">
<path fill-rule="evenodd" clip-rule="evenodd" d="M6.02395 1.03048C6.20607 1.02848 6.38625 1.06796 6.55085 1.14592C6.71544 1.22389 6.86013 1.3383 6.97395 1.48048L7.32795 1.91948L7.90095 1.78548C7.99795 1.76048 8.09495 1.74848 8.19295 1.74848C8.85095 1.74848 9.41095 2.26048 9.43595 2.91848L9.47195 3.47848L10.008 3.69848C10.483 3.90548 10.8 4.35548 10.8 4.86748C10.8 5.09948 10.727 5.33048 10.593 5.53748L10.288 6.00048L10.593 6.50048C10.715 6.70748 10.788 6.93848 10.788 7.18248C10.788 7.68248 10.471 8.14448 9.99595 8.32748L9.47195 8.52248L9.42295 9.10748C9.39954 9.42125 9.25867 9.71465 9.02845 9.92911C8.79822 10.1436 8.49559 10.2633 8.18095 10.2645C8.07095 10.2645 7.96095 10.2525 7.86395 10.2275L7.32795 10.0815L6.93795 10.5205C6.68195 10.8375 6.40195 10.9585 5.97595 10.9705C5.79392 10.972 5.61391 10.9323 5.44939 10.8543C5.28487 10.7764 5.14012 10.6623 5.02595 10.5205L4.67195 10.0815L4.09895 10.2155C4.0035 10.2397 3.90543 10.2522 3.80695 10.2525C3.14895 10.2525 2.58895 9.74048 2.56395 9.08248L2.52795 8.52248L1.99195 8.30248C1.50495 8.09548 1.19995 7.65748 1.19995 7.14548C1.19995 6.90148 1.27295 6.67048 1.40695 6.46348L1.71195 6.00048L1.40695 5.48848C1.28052 5.2878 1.21296 5.05566 1.21195 4.81848C1.21195 4.31848 1.52895 3.85648 2.00395 3.67348L2.52795 3.47848L2.58795 2.89348C2.61295 2.23648 3.17395 1.73648 3.81895 1.73648C3.92895 1.73648 4.03895 1.74848 4.13595 1.77348L4.67195 1.91948L5.04995 1.46948C5.31795 1.17648 5.59795 1.04348 6.02395 1.03048ZM7.19595 3.94748L3.95995 7.20748L4.79995 8.04848L8.04795 4.80048L7.19595 3.94748ZM7.43795 6.84148C7.2797 6.84174 7.128 6.90473 7.0161 7.01663C6.9042 7.12853 6.84122 7.28023 6.84095 7.43848C6.83977 7.55825 6.87427 7.67565 6.94007 7.77573C7.00587 7.8758 7.09998 7.95402 7.21041 8.0004C7.32083 8.04678 7.44257 8.05923 7.5601 8.03615C7.67762 8.01308 7.78562 7.95553 7.87031 7.87084C7.955 7.78614 8.01255 7.67815 8.03562 7.56063C8.0587 7.4431 8.04625 7.32136 7.99987 7.21094C7.95349 7.10051 7.87528 7.0064 7.7752 6.9406C7.67512 6.8748 7.55772 6.84029 7.43795 6.84148ZM4.56195 3.95348C4.40189 3.95189 4.24776 4.01395 4.13346 4.126C4.01915 4.23805 3.95404 4.39092 3.95245 4.55098C3.95086 4.71104 4.01292 4.86517 4.12497 4.97948C4.23702 5.09378 4.38989 5.15889 4.54995 5.16048C4.71001 5.16207 4.86414 5.10001 4.97845 4.98796C5.09275 4.87591 5.15786 4.72304 5.15945 4.56298C5.16104 4.40292 5.09899 4.24879 4.98693 4.13448C4.87488 4.02018 4.72201 3.95507 4.56195 3.95348Z" fill="#1A1C1F"/>
</g>
<defs>
<clipPath id="clip0_2202_1448">
<rect width="12" height="12" fill="white"/>
</clipPath>
</defs>
</svg>

<svg xmlns="http://www.w3.org/2000/svg" width="12" height="12" fill="none"><g clip-path="url(#a)"><path fill="#1A1C1F" fill-rule="evenodd" d="M6.024 1.03a1.2 1.2 0 0 1 .95.45l.354.44.573-.135q.145-.037.292-.037c.658 0 1.218.512 1.243 1.17l.036.56.536.22c.475.207.792.657.792 1.17 0 .231-.073.462-.207.67L10.288 6l.305.5c.122.207.195.438.195.682 0 .5-.317.962-.792 1.145l-.524.195-.049.585a1.25 1.25 0 0 1-1.242 1.158c-.11 0-.22-.013-.317-.038l-.536-.146-.39.44c-.256.316-.536.438-.962.45a1.2 1.2 0 0 1-.95-.45l-.354-.44-.573.135a1.2 1.2 0 0 1-.292.037c-.658 0-1.218-.513-1.243-1.17l-.036-.56-.536-.22c-.487-.208-.792-.646-.792-1.158 0-.244.073-.475.207-.682L1.712 6l-.305-.512a1.27 1.27 0 0 1-.195-.67c0-.5.317-.962.792-1.145l.524-.195.06-.585c.025-.657.586-1.157 1.231-1.157.11 0 .22.012.317.037l.536.146.378-.45c.268-.293.548-.426.974-.439m1.172 2.917L3.96 7.207l.84.841L8.048 4.8zm.242 2.894a.6.6 0 0 0-.597.597.603.603 0 1 0 .597-.597M4.562 3.953A.604.604 0 1 0 4.55 5.16a.604.604 0 0 0 .012-1.207" clip-rule="evenodd"/></g><defs><clipPath id="a"><path fill="#fff" d="M0 0h12v12H0z"/></clipPath></defs></svg>
